packages/ffe-icons/icons/filled/sm/workspaces.svg

<svg xmlns="http://www.w3.org/2000/svg" height="20" viewBox="0 -960 960 960" width="20"><path d="M240-159.386q-53.653 0-91.134-37.48-37.48-37.481-37.48-91.134t37.48-91.134q37.481-37.48 91.134-37.48t91.134 37.48q37.48 37.481 37.48 91.134t-37.48 91.134q-37.481 37.48-91.134 37.48Zm480 0q-53.653 0-91.134-37.48-37.48-37.481-37.48-91.134t37.48-91.134q37.481-37.48 91.134-37.48t91.134 37.48q37.48 37.481 37.48 91.134t-37.48 91.134q-37.481 37.48-91.134 37.48Zm-240-384q-53.653 0-91.134-37.48-37.48-37.481-37.48-91.134t37.48-91.134q37.481-37.48 91.134-37.48t91.134 37.48q37.48 37.481 37.48 91.134t-37.48 91.134q-37.481 37.48-91.134 37.48Z"/></svg>

<svg xmlns="http://www.w3.org/2000/svg" height="20" viewBox="0 -960 960 960" width="20"><path d="M240-159.39q-53.65 0-91.13-37.48T111.39-288q0-53.65 37.48-91.13T240-416.61q53.65 0 91.13 37.48T368.61-288q0 53.65-37.48 91.13T240-159.39Zm480 0q-53.65 0-91.13-37.48T591.39-288q0-53.65 37.48-91.13T720-416.61q53.65 0 91.13 37.48T848.61-288q0 53.65-37.48 91.13T720-159.39Zm-240-384q-53.65 0-91.13-37.48T351.39-672q0-53.65 37.48-91.13T480-800.61q53.65 0 91.13 37.48T608.61-672q0 53.65-37.48 91.13T480-543.39Z"/></svg>
